X:1
T:Tour of California
T:Tour of California V1 
L:1/8
Q:1/4=110
M:4/4
K:G
V:1 treble nm="Violin" snm="Vln."
V:1
!f! g2 (ga) (f3 g) | ef d6 | g2 ((ga)) fg((ef)) | d8 | g2 (ga) (f3 g) | ef d6 | g2 (fe) dcBG | %7
!>(! A8!>)! | z8 | z8 | z8 | z4 z2!mf! Bc |!<(! d2 B2 (F3 G)!<)! |!>(! E6!<(! AB!>)!!<)! | %14
 c2 A2 (E3 F) |!>(! D8!>)! |!mf! D2 G2 (FG) A2 | C6 (B,C) | D2 G2 (FG)(AB) | d6 (Bd) | %20
 e2 d2 (B3 d) | B2 G4!<(! (GA)!<)! |!f! (B3 c) (B3 G) | (A3 B) (A3 F) |!mp!!<(! (G8!<)! | %25
 G2) z!f! g fgef | ((d8 | d3) g) (fg)(ef) | d2 (FG) A2 c2 | B4 z4 | z8 | z8 | z8 | z8 | %34
!mf! D2 G2 (FG) A2 | C6 (B,C) | D2 G2 (FG)(AB) | d6 (Bd) | e2 d2 (B3 d) | (BA) G4!<(! (GA)!<)! | %40
!f! (B3 c) (B3 G) | (A3 B) (A3 F) |!mf!!<(! (FG)(GF) (G4!<)! | G2) z!f! g (fg)(ef) |!mp! ((d8 | %45
 d3)!f! g) (fg)(ef) | d2 (ag) f2 (dc) | B4 z4 | z4 z2 z!f! B | (d2 e2) (c3 A) |!mf!!<(! (B8!<)! | %51
 B8) ||[K:A]!mf! E2 A2 (GA) B2 | D6 (CD) | E2 A2 (GA)(Bc) | e6 (ce) | f2 e2 (c3 e) | c2 A4 (cd) | %58
"_cresc." (e3 f) (e3 c) | (e3 a) (g3 e) | c2 (cd) (c3 A) | B2 (Bc) (B3 G) |!mf! A8 |!f! c4 e4 | %64
 a6 !>!f!>!g | !>!a4 !>!g4 |!ff! a2 ag a2 ga | aaag aaag | !^!a2 z !>!A, (!>!A,4 | A,8) |] %70

